src/pages/elements/images/i-m-harder-to-read-mobile.svg

<svg xmlns="http://www.w3.org/2000/svg" viewBox="0 0 288 144"><g fill="none" fill-rule="evenodd"><path fill="#FFF" d="M0 0h288v144H0z"/><path d="M32.16 81h-6.72v-1.68h2.352V65.928H25.44v-1.68h6.72v1.68h-2.352V79.32h2.352V81zm4.824-18c1.008 0 1.464.576 1.464 1.416v.336c0 1.296-.816 3.072-2.184 4.248h-1.608c.96-1.008 1.536-1.848 1.8-2.976-.648-.144-.936-.624-.936-1.272v-.336c0-.84.456-1.416 1.464-1.416zm5.4 18V64.248h2.688l4.8 9.024h.12l4.824-9.024h2.592V81H55.44V66.888h-.12l-1.416 2.808-4.008 7.296-4.008-7.296-1.416-2.808h-.12V81h-1.968zm35.64 0v-7.584h-8.472V81h-2.016V64.248h2.016v7.392h8.472v-7.392h2.016V81h-2.016zm19.08 0h-2.112l-1.68-4.944h-6.768L84.864 81h-2.04l5.856-16.752h2.568L97.104 81zm-4.296-6.72l-2.832-8.16h-.12l-2.832 8.16h5.784zm9.096-.48V81h-2.016V64.248h6.672c2.928 0 4.68 1.704 4.68 4.752 0 2.448-1.176 4.104-3.36 4.608L111.72 81h-2.28l-3.624-7.2h-3.912zm0-1.728h4.656c1.584 0 2.52-.864 2.52-2.4v-1.248c0-1.536-.936-2.4-2.52-2.4h-4.656v6.048zM115.248 81V64.248h5.616c4.176 0 6.864 2.784 6.864 8.376S125.04 81 120.864 81h-5.616zm2.016-1.776h3.6c2.76 0 4.704-1.92 4.704-5.232v-2.736c0-3.312-1.944-5.232-4.704-5.232h-3.6v13.2zM141.576 81h-10.224V64.248h10.224v1.776h-8.208v5.616h7.728v1.776h-7.728v5.808h8.208V81zm5.784-7.2V81h-2.016V64.248h6.672c2.928 0 4.68 1.704 4.68 4.752 0 2.448-1.176 4.104-3.36 4.608l3.84 7.392h-2.28l-3.624-7.2h-3.912zm0-1.728h4.656c1.584 0 2.52-.864 2.52-2.4v-1.248c0-1.536-.936-2.4-2.52-2.4h-4.656v6.048zm29.976-6.048h-5.328V81h-2.016V66.024h-5.328v-1.776h12.672v1.776zm8.544 15.264c-4.32 0-7.104-3.048-7.104-8.664s2.784-8.664 7.104-8.664 7.104 3.048 7.104 8.664-2.784 8.664-7.104 8.664zm0-1.8c2.904 0 4.944-2.16 4.944-5.472v-2.784c0-3.312-2.04-5.472-4.944-5.472s-4.944 2.16-4.944 5.472v2.784c0 3.312 2.04 5.472 4.944 5.472zm18.408-5.688V81h-2.016V64.248h6.672c2.928 0 4.68 1.704 4.68 4.752 0 2.448-1.176 4.104-3.36 4.608l3.84 7.392h-2.28l-3.624-7.2h-3.912zm0-1.728h4.656c1.584 0 2.52-.864 2.52-2.4v-1.248c0-1.536-.936-2.4-2.52-2.4h-4.656v6.048zM227.856 81h-10.224V64.248h10.224v1.776h-8.208v5.616h7.728v1.776h-7.728v5.808h8.208V81zm16.368 0h-2.112l-1.68-4.944h-6.768L231.984 81h-2.04l5.856-16.752h2.568L244.224 81zm-4.296-6.72l-2.832-8.16h-.12l-2.832 8.16h5.784zm7.08 6.72V64.248h5.616c4.176 0 6.864 2.784 6.864 8.376S256.8 81 252.624 81h-5.616zm2.016-1.776h3.6c2.76 0 4.704-1.92 4.704-5.232v-2.736c0-3.312-1.944-5.232-4.704-5.232h-3.6v13.2zm14.4 2.064c-1.008 0-1.464-.576-1.464-1.392v-.312c0-.816.456-1.392 1.464-1.392s1.464.576 1.464 1.392v.312c0 .816-.456 1.392-1.464 1.392z" fill="#3D3D3D"/></g></svg>

<?xml version="1.0" encoding="UTF-8"?>
<svg width="288px" height="144px" viewBox="0 0 288 144" version="1.1" xmlns="http://www.w3.org/2000/svg" xmlns:xlink="http://www.w3.org/1999/xlink">
    <!-- Generator: Sketch 51.2 (57519) - http://www.bohemiancoding.com/sketch -->
    <title>I'm harder to read_Mobile</title>
    <desc>Created with Sketch.</desc>
    <defs></defs>
    <g id="Page-1" stroke="none" stroke-width="1" fill="none" fill-rule="evenodd">
        <g id="Typography_Mobile_320px-Copy-2" transform="translate(-16.000000, -8203.000000)">
            <g id="I'm-harder-to-read_Mobile" transform="translate(16.000000, 8203.000000)">
                <rect id="Rectangle-16-Copy-156" fill="#FFFFFF" x="0" y="0" width="288" height="144"></rect>
                <path d="M32.16,81 L25.44,81 L25.44,79.32 L27.792,79.32 L27.792,65.928 L25.44,65.928 L25.44,64.248 L32.16,64.248 L32.16,65.928 L29.808,65.928 L29.808,79.32 L32.16,79.32 L32.16,81 Z M36.984,63 C37.992,63 38.448,63.576 38.448,64.416 L38.448,64.752 C38.448,66.048 37.632,67.824 36.264,69 L34.656,69 C35.616,67.992 36.192,67.152 36.456,66.024 C35.808,65.88 35.52,65.4 35.52,64.752 L35.52,64.416 C35.52,63.576 35.976,63 36.984,63 Z M42.384,81 L42.384,64.248 L45.072,64.248 L49.872,73.272 L49.992,73.272 L54.816,64.248 L57.408,64.248 L57.408,81 L55.44,81 L55.44,66.888 L55.32,66.888 L53.904,69.696 L49.896,76.992 L45.888,69.696 L44.472,66.888 L44.352,66.888 L44.352,81 L42.384,81 Z M78.024,81 L78.024,73.416 L69.552,73.416 L69.552,81 L67.536,81 L67.536,64.248 L69.552,64.248 L69.552,71.64 L78.024,71.64 L78.024,64.248 L80.04,64.248 L80.04,81 L78.024,81 Z M97.104,81 L94.992,81 L93.312,76.056 L86.544,76.056 L84.864,81 L82.824,81 L88.68,64.248 L91.248,64.248 L97.104,81 Z M92.808,74.28 L89.976,66.12 L89.856,66.12 L87.024,74.28 L92.808,74.28 Z M101.904,73.8 L101.904,81 L99.888,81 L99.888,64.248 L106.56,64.248 C109.488,64.248 111.24,65.952 111.24,69 C111.24,71.448 110.064,73.104 107.88,73.608 L111.72,81 L109.44,81 L105.816,73.8 L101.904,73.8 Z M101.904,72.072 L106.56,72.072 C108.144,72.072 109.08,71.208 109.08,69.672 L109.08,68.424 C109.08,66.888 108.144,66.024 106.56,66.024 L101.904,66.024 L101.904,72.072 Z M115.248,81 L115.248,64.248 L120.864,64.248 C125.04,64.248 127.728,67.032 127.728,72.624 C127.728,78.216 125.04,81 120.864,81 L115.248,81 Z M117.264,79.224 L120.864,79.224 C123.624,79.224 125.568,77.304 125.568,73.992 L125.568,71.256 C125.568,67.944 123.624,66.024 120.864,66.024 L117.264,66.024 L117.264,79.224 Z M141.576,81 L131.352,81 L131.352,64.248 L141.576,64.248 L141.576,66.024 L133.368,66.024 L133.368,71.64 L141.096,71.64 L141.096,73.416 L133.368,73.416 L133.368,79.224 L141.576,79.224 L141.576,81 Z M147.36,73.8 L147.36,81 L145.344,81 L145.344,64.248 L152.016,64.248 C154.944,64.248 156.696,65.952 156.696,69 C156.696,71.448 155.52,73.104 153.336,73.608 L157.176,81 L154.896,81 L151.272,73.8 L147.36,73.8 Z M147.36,72.072 L152.016,72.072 C153.6,72.072 154.536,71.208 154.536,69.672 L154.536,68.424 C154.536,66.888 153.6,66.024 152.016,66.024 L147.36,66.024 L147.36,72.072 Z M177.336,66.024 L172.008,66.024 L172.008,81 L169.992,81 L169.992,66.024 L164.664,66.024 L164.664,64.248 L177.336,64.248 L177.336,66.024 Z M185.88,81.288 C181.56,81.288 178.776,78.24 178.776,72.624 C178.776,67.008 181.56,63.96 185.88,63.96 C190.2,63.96 192.984,67.008 192.984,72.624 C192.984,78.24 190.2,81.288 185.88,81.288 Z M185.88,79.488 C188.784,79.488 190.824,77.328 190.824,74.016 L190.824,71.232 C190.824,67.92 188.784,65.76 185.88,65.76 C182.976,65.76 180.936,67.92 180.936,71.232 L180.936,74.016 C180.936,77.328 182.976,79.488 185.88,79.488 Z M204.288,73.8 L204.288,81 L202.272,81 L202.272,64.248 L208.944,64.248 C211.872,64.248 213.624,65.952 213.624,69 C213.624,71.448 212.448,73.104 210.264,73.608 L214.104,81 L211.824,81 L208.2,73.8 L204.288,73.8 Z M204.288,72.072 L208.944,72.072 C210.528,72.072 211.464,71.208 211.464,69.672 L211.464,68.424 C211.464,66.888 210.528,66.024 208.944,66.024 L204.288,66.024 L204.288,72.072 Z M227.856,81 L217.632,81 L217.632,64.248 L227.856,64.248 L227.856,66.024 L219.648,66.024 L219.648,71.64 L227.376,71.64 L227.376,73.416 L219.648,73.416 L219.648,79.224 L227.856,79.224 L227.856,81 Z M244.224,81 L242.112,81 L240.432,76.056 L233.664,76.056 L231.984,81 L229.944,81 L235.8,64.248 L238.368,64.248 L244.224,81 Z M239.928,74.28 L237.096,66.12 L236.976,66.12 L234.144,74.28 L239.928,74.28 Z M247.008,81 L247.008,64.248 L252.624,64.248 C256.8,64.248 259.488,67.032 259.488,72.624 C259.488,78.216 256.8,81 252.624,81 L247.008,81 Z M249.024,79.224 L252.624,79.224 C255.384,79.224 257.328,77.304 257.328,73.992 L257.328,71.256 C257.328,67.944 255.384,66.024 252.624,66.024 L249.024,66.024 L249.024,79.224 Z M263.424,81.288 C262.416,81.288 261.96,80.712 261.96,79.896 L261.96,79.584 C261.96,78.768 262.416,78.192 263.424,78.192 C264.432,78.192 264.888,78.768 264.888,79.584 L264.888,79.896 C264.888,80.712 264.432,81.288 263.424,81.288 Z" id="I’M-HARDER-TO-READ." fill="#3D3D3D"></path>
            </g>
        </g>
    </g>
</svg>
